shared/images/iconfont/35-kb-iconfont-folder-new-16.svg

<?xml version="1.0" encoding="UTF-8"?>
<svg width="16px" height="16px" viewBox="0 0 16 16" version="1.1" xmlns="http://www.w3.org/2000/svg" xmlns:xlink="http://www.w3.org/1999/xlink">
    <!-- Generator: sketchtool 57.1 (101010) - https://sketch.com -->
    <title>E1F5AC29-50A6-4C48-982D-15C892217C36</title>
    <desc>Created with sketchtool.</desc>
    <g id="Symbols" stroke="none" stroke-width="1" fill="none" fill-rule="evenodd">
        <g id="35-kb-iconfont-folder-new-16">
            <g>
                <rect id="icon-area" opacity="0" x="0" y="0" width="16" height="16"></rect>
                <path d="M12,8 C12.5522847,8 13,8.44771525 13,9 L13,10.999 L15,11 C15.5522847,11 16,11.4477153 16,12 C16,12.5522847 15.5522847,13 15,13 L13,13 L13,15 C13,15.5522847 12.5522847,16 12,16 C11.4477153,16 11,15.5522847 11,15 L11,13 L9,13 C8.44771525,13 8,12.5522847 8,12 C8,11.4477153 8.44771525,11 9,11 L11,11 L11,9 C11,8.44771525 11.4477153,8 12,8 Z M5.97837188,0 L6.98116271,1.99499601 L14.7237095,1.99499601 L14.7237095,1.99499601 C15.255778,1.99499601 15.451091,2.0970919 15.6837889,2.3406729 C15.9164868,2.58425391 16.0110963,2.93224665 16.0110963,3.24496315 L16.0110963,6.00358808 L16.0110963,6.00358808 C16.0110963,6.55389119 15.5649875,7 15.0146844,7 C14.4643813,7 14.0182725,6.55389119 14.0182725,6.00358808 L14.0182725,3.99453209 L1.99282384,3.99453209 L1.99282384,12.0106057 L5.0015498,12.0106057 C5.55297862,12.0106057 6,12.4576271 6,13.0090559 C6,13.5604847 5.55297862,14.0075061 5.0015498,14.0075061 L1.53217186,14.0075061 L1.53217186,14.0075061 C1.21252431,14.0075061 0.779562412,14.0509517 0.417397432,13.7952157 C0.0300763159,13.5217161 1.66533401e-16,13.0170062 1.66533401e-16,12.7596262 L1.66533401e-16,1.08803283 L1.66533401e-16,1.08803283 C0.0210119823,0.819609958 0.148533328,0.582109345 0.382564037,0.37553099 C0.733610101,0.0656634577 1.01357728,0 1.37716668,0 L5.97837188,0 L5.97837188,0 Z" id="Combined-Shape" fill="#000000"></path>
            </g>
        </g>
    </g>
</svg>

<svg xmlns="http://www.w3.org/2000/svg" width="16" height="16" viewBox="0 0 16 16">
    <path fill="#000" fill-rule="evenodd" d="M12 8a1 1 0 0 1 1 1v1.999L15 11a1 1 0 0 1 0 2h-2v2a1 1 0 0 1-2 0v-2H9a1 1 0 0 1 0-2h2V9a1 1 0 0 1 1-1zM5.978 0l1.003 1.995h7.743c.532 0 .727.102.96.346.232.243.327.591.327.904v2.759a.996.996 0 1 1-1.993 0v-2.01H1.993v8.017h3.009a.998.998 0 0 1 0 1.997h-3.47c-.32 0-.752.043-1.115-.213C.03 13.522 0 13.017 0 12.76V1.088C.021.82.149.582.383.376c.35-.31.63-.376.994-.376h4.601z"/>
</svg>
